usr/share/icons/biglinux-icons-material/symbolic/apps/org.gnome.Settings-wacom-symbolic.svg

<svg width="16px" height="16px" version="1.1" viewBox="0 0 16 16" xmlns="http://www.w3.org/2000/svg">
 <path d="m8 0v1.5c0 0.13281-0.054688 0.26172-0.14453 0.35547-0.09375 0.09375-0.21875 0.14453-0.34766 0.14453h-3.0117c-0.53516 0-1.0312 0.28906-1.2969 0.75-0.26562 0.46484-0.26562 1.0352 0 1.5 0.26562 0.46094 0.76172 0.75 1.2969 0.75h3.0078c0.17969 0 0.33984 0.09375 0.42969 0.25 0.042968 0.074219 0.066406 0.16406 0.066406 0.25v0.5h-5c-1.662 0-3 1.338-3 3v4c0 1.662 1.338 3 3 3h10c1.662 0 3-1.338 3-3v-4c0-0.87646-0.37522-1.6595-0.9707-2.207l-0.70703 0.70508c0.41558 0.36597 0.67773 0.90213 0.67773 1.502v4c0 1.108-0.892 2-2 2h-10c-1.108 0-2-0.892-2-2v-4c0-1.108 0.892-2 2-2h6.1875l0.99609-1h-1.1836v-0.5c0-0.25781-0.066406-0.51562-0.19922-0.75-0.26562-0.46094-0.76172-0.75-1.2969-0.75h-3.0078c-0.17969 0-0.33984-0.09375-0.42969-0.25-0.089844-0.15234-0.089844-0.34766 0-0.5 0.089844-0.15625 0.25-0.25 0.42969-0.25h3.0117c0.39844 0 0.77734-0.16016 1.0547-0.44141 0.28125-0.28125 0.4375-0.66016 0.4375-1.0586v-1.5h-1zm7 3c-0.26562 0-0.51953 0.10547-0.70312 0.29297h-0.003906l-6.293 6.3164v1.3906h1.3906l6.3164-6.293-0.003906-0.0039062c0.1914-0.18359 0.29688-0.4375 0.29688-0.70312 0-0.55078-0.44922-1-1-1z" fill="#dedede"/>
</svg>

<svg xmlns="http://www.w3.org/2000/svg" width="16" height="16"><path fill="#dedede" d="M8 0v1.5a.491.491 0 0 1-.492.5H4.496A1.501 1.501 0 0 0 3.2 4.25c.266.46.762.75 1.297.75h3.008c.18 0 .34.094.43.25A.51.51 0 0 1 8 5.5V6H3C1.338 6 0 7.338 0 9v4c0 1.662 1.338 3 3 3h10c1.662 0 3-1.338 3-3V9c0-.876-.375-1.66-.97-2.207l-.708.705C14.738 7.864 15 8.4 15 9v4c0 1.108-.892 2-2 2H3c-1.108 0-2-.892-2-2V9c0-1.108.892-2 2-2h6.188l.996-1H9v-.5A1.501 1.501 0 0 0 7.504 4H4.496a.49.49 0 0 1-.43-.25.497.497 0 0 1 0-.5.49.49 0 0 1 .43-.25h3.012c.398 0 .777-.16 1.054-.441C8.844 2.277 9 1.899 9 1.5V0H8zm7 3a.984.984 0 0 0-.703.293h-.004L8 9.609V11h1.39l6.317-6.293-.004-.004A.972.972 0 0 0 16 4c0-.55-.45-1-1-1z"/></svg>
